X:1
T:Összegyűltek, összegyűltek az izsapi lányok
C:Hungarian folk song
Z:Public Domain
L:1/8
M:2/4
K:C
V:1 treble nm="Voice"
%%MIDI program 52
V:1
"^Előénekes" Ac BA | Ac BA | Ac BA | B2 E z |"^Kar" E2 D2 | E2 D2 | AA GF | E2 E z |] %8
w: Ösz- sze- gyűl- tek,|ösz- sze- gyűl- tek|az i- zsa- pi|lá- nyok,|M- hm,|ej- ha,|az i- zsa- pi|lá- nyok.-|

